X:1
T:Title
%%score { ( 1 3 ) | ( 2 4 ) }
L:1/8
Q:1/4=100
M:4/4
K:Eb
V:1 treble nm="Grand Piano"
V:3 treble 
V:2 bass 
V:4 bass 
V:1
 B2 BB c2 BG | [DF]2 [CE][DF] [EG]4 | [Ge]2 [Bd][Ac] [GB]2 GB | c2 BG [DF]4 | %4
w: John~R.~Sweney * * * * *||||
 G2 GG [EB]2 [EG][EG] | [EA]2 [EA][EA] [Ec]4 | e2 dc [Ac]2 [GB][EG] | [DB]2 [DF][DG] E4 | %8
w: ||||
 G2 GG [=Ec]2 [CEG]2 | [CGB]2 [CFA]2 [CFA]2 z2 | [DFA]2 [=EG][FA] [Ad]2 [Ac][Ac] | %11
w: |||
 [DB]2 [DF][D_G] =G4 | G2 GG [EB]2 [EG][EG] | [EA]2 [EA][EA] [Ec]4 | e8 | %15
w: ||||
 [DB]4 z4[Q:1/4=99][Q:1/4=97][Q:1/4=96][Q:1/4=94][Q:1/4=93][Q:1/4=91][Q:1/4=90][Q:1/4=88][Q:1/4=87][Q:1/4=85][Q:1/4=84][Q:1/4=82][Q:1/4=81][Q:1/4=79][Q:1/4=78][Q:1/4=76] |] %16
w: |
V:2
 [E,G,E]2 [E,G,E][E,G,E] [E,A,E]2 [E,G,E][E,B,E] | [B,,B,]2 [B,,B,][B,,B,] [E,B,]4 | %2
 [E,B,]2 [E,B,][E,E] [E,E]2 [E,B,E][E,G,E] | [E,A,E]2 [E,G,E][E,B,E] [B,,B,]4 | %4
 [E,B,E]2 [E,B,E][E,B,E] [_D,G,]2 [D,B,][D,B,] | [C,A,]2 [C,A,][C,A,] [A,,A,]4 | %6
 [A,CA]2 [A,DA][A,EA][K:bass] [E,E]2 [E,B,][E,B,] | [B,,B,]2 [B,,A,][B,,B,] [E,G,]4 | %8
 [E,B,E]2 [E,B,E][E,G,E] [C,G,]2 C,2 | F,2 F,2 F,2 z2 | %10
 B,,2 [B,,B,][B,,B,] [B,,B,]2 [B,,B,][B,,B,] | [B,,B,]2 [B,,B,][B,,B,] [E,B,E]4 | %12
 [E,B,E]2 [E,B,E][E,B,E] [_D,G,]2 [D,B,][D,B,] | [C,A,]2 [C,A,][C,A,] [A,,A,]4 | %14
 [C,A,]2 [C,A,]2 [B,,B,]4 | F,2 z2 [E,G,E]4 |] %16
V:3
 x8 | x8 | x8 | x8 | x8 | x8 | x8 | x8 | x8 | x8 | x8 | x8 | x8 | x8 | E2 _G2 =G4 | z2 A,2 B4 |] %16
V:4
 x8 | x8 | x8 | x8 | x8 | x8 | x4[K:bass] x4 | x8 | x8 | x8 | x8 | x8 | x8 | x8 | x8 | B,,4 z4 |] %16

